X:956
T:Ye Banks And Braes o' Bonnie Doone
C:Joe Buchanan's Scottish Tome - Page 558.2
I:558 2
Z:Carl Allison
R:Waltz
L:1/4
M:3/4
K:G
D | "G"G2 G | "D"A G A | "Em"(B d) B | "D"A G A | "G/B"B>A G | "C"G E D | "G"D E G | "D"A2 B/A/ |
"G"G2 G | "D"A G A | "Em"(B d) B | "D"A G A | "G/B"B>A G | "C"G E D | "D7"D E G | "G"G2 B |
"G"d2 e | "G"d B G | "G"d2 "C"e | "G"d B G | "G"d B G | "Em"d B G | "Am"e>d c/B/ | "D7"A2 B/A/ |
"G"G2 G | "D"D G A | "Em"B d B | "D"A G A | "G/D"B A G | "C"G E D | "D7"D E G | "G"G3 |]

